Yaru++/devices/symbolic/media-floppy-symbolic.svg

<svg height="16" width="16" xmlns="http://www.w3.org/2000/svg">
  <g fill="#808080">
    <path d="m4.994 1c-1.258.015-2.179-.03-2.931.385a1.88 1.88 0 0 0 -.838.998c-.165.439-.225.96-.225 1.617v8.207l.147.147 2.646 2.646h7.213c1.258-.015 2.179.03 2.932-.385a1.88 1.88 0 0 0 .838-.998c.164-.438.224-.96.224-1.617v-8c0-.658-.06-1.178-.225-1.617a1.88 1.88 0 0 0 -.837-.998c-.753-.416-1.674-.37-2.932-.385h-6.008zm.006 1h6c1.259.015 2.09.06 2.455.262.184.101.287.213.385.472.097.26.16.674.16 1.266v8c0 .592-.063 1.006-.16 1.266-.098.26-.201.371-.385.472-.367.203-1.197.247-2.46.262h-6.789l-2.206-2.207v-7.793c0-.592.063-1.006.16-1.266.098-.26.204-.371.387-.472.366-.202 1.195-.247 2.453-.262z"/>
    <path d="m4 9v5h2v-4h2v4h4v-5z"/>
  </g>
</svg>

<svg height="16" width="16" xmlns="http://www.w3.org/2000/svg">
    <g fill="gray">
        <path d="M4.994 1c-1.258.015-2.179-.03-2.931.385a1.88 1.88 0 0 0-.838.998C1.06 2.822 1 3.343 1 4v8.207l.147.147L3.793 15H11.006c1.258-.015 2.179.03 2.932-.385a1.88 1.88 0 0 0 .838-.998c.164-.438.224-.96.224-1.617V4c0-.658-.06-1.178-.225-1.617a1.88 1.88 0 0 0-.837-.998c-.753-.416-1.674-.37-2.932-.385H4.998zM5 2h6c1.259.015 2.09.06 2.455.262.184.101.287.213.385.472.097.26.16.674.16 1.266v8c0 .592-.063 1.006-.16 1.266-.098.26-.201.371-.385.472-.367.203-1.197.247-2.46.262H4.206L2 11.793V4c0-.592.063-1.006.16-1.266.098-.26.204-.371.387-.472C2.913 2.06 3.742 2.015 5 2z" style="line-height:normal;font-variant-ligatures:normal;font-variant-position:normal;font-variant-caps:normal;font-variant-numeric:normal;font-variant-alternates:normal;font-feature-settings:normal;text-indent:0;text-align:start;text-decoration-line:none;text-decoration-style:solid;text-decoration-color:#000;text-transform:none;text-orientation:mixed;shape-padding:0;isolation:auto;mix-blend-mode:normal;marker:none" color="#000" font-weight="400" font-family="sans-serif" white-space="normal" overflow="visible"/>
        <path d="M4 9v5h2v-4h2v4h4V9z"/>
    </g>
</svg>
